X:1
T:Kawaiaha‘o, 87.87 D
T:Charles Hutchinson Gabriel, 1911
T:Kawaiaha‘o, 87.87 D
T:Public Domain
C:Charles Hutchinson Gabriel, 1911
Z:Public Domain
%%score ( 1 2 ) 3
L:1/8
M:6/8
K:D
V:1 treble 
V:2 treble 
V:3 bass 
V:1
 [DF][DF][DF] [DF][DE]D | [FA]3 [FA]3 | [GB][Ac][Bd] [Ac][Ac][GB] | [FA]3- [FA]2 z | %4
 [EA][CE][CE] [EA][CE][CE] | [DF]3 [FA]3 | [E^G][EB][Ed] [Ec][Ec][DB] | ([CA-]3 [GA]2) z | %8
 [FA][FB][Fc] [Fd][Fc][FB] | (GGG [EG]3) | [CE][DF][EG] [GB][FA][EG] | (DDD [DF]2) z | %12
 [FA][FB][Fc] [Fd][Fc][FB] | (GGG [GB]3) | [FA][Fd][FA] [DF][CG][CE] | D3- D2 z |] %16
V:2
 x5 D | x6 | x6 | x6 | x6 | x6 | x6 | x6 | x6 | c3 x3 | x6 | F3- x3 | x6 | d3 x3 | x6 | D3- D2 x |] %16
V:3
 [D,A,][D,A,][D,A,] [D,A,][D,G,][D,F,] | [D,D]3 [D,D]3 | [G,D][G,D][G,D] [G,D][G,D][G,D] | %3
 [D,D]3- [D,D]2 z | [A,,C][A,,A,][A,,A,] [A,,C][A,,A,][A,,A,] | [D,A,]3 [D,D]3 | %6
 [E,D][E,D][E,B,] [E,A,][E,A,][E,^G,] | ([A,,-A,]3 [A,,C]2) z | %8
 [D,D][D,D][D,D] [D,A,][D,A,][D,A,] | ([E,A,][E,A,][E,A,] [A,C]3) | %10
 [A,,A,][A,,A,][A,,A,] [A,,A,]2 [A,,A,] | ([D,A,][D,A,][D,A,] [D,A,]2) z | %12
 [D,D][D,D][D,D] [D,A,][D,A,][D,A,] | ([G,,G,B,][G,,G,B,][G,,G,B,] [G,,G,D]3) | %14
 [A,,D][A,,A,][A,,A,] [A,,A,][A,,E,][A,,G,] | [D,F,]3- [D,F,]2 z |] %16

